X: 15
T: Renjia douzai ni buzai
L: 1/16
M: 2/4
K: F
g2a4a d' [I:setbarnb 1]| 
g2 g2 f2 f d | 
d2 c A A2 c f | 
A8 | 
g2a4a d' | 
g2 g2 f2 f d | 
d2 c A A2 c f | 
d8 |]

@@@ Tune index: 8889
